!!!!SEGMENT: pl-wtm--r-105-n_noskowski-zygmunt--ksiezyc.krn
!!!cenid: 18xx:2292
!!!COM: Noskowski, Zygmunt
!!!COM-rismid: pe106604
!!!CDT: 1846/05/02-1909/07/23
!!!CNT: Polish
!!!OTL: Księżyc
!!!PDT:
!!!AGN:
!!!SMS-siglum: PL-Wtm
!!!SMS-shelfmark: R 105/N
!!!SMS-shelfwork: W
!!!SMS-variant:
!!!SMS-altvar:
!!!NIFC-rismid: 1001101668
!!!URL-scan: http://repozytorium.nifc.pl/skany/pl-wtm-nut--r105n
!!!ONB-nifc:
!!!key:
**kern	**kern	**dynam	**kern	**text	**dynam
*part2	*part2	*part2	*part1	*part1	*part1
*staff3	*staff2	*	*staff1	*staff1	*
*Iempty	*Iforte	*	*Ivox	*	*
*	*I"[Fortepian]	*	*I"[Głos]	*	*
*clefF4	*clefG2	*	*clefG2	*	*
*k[f#c#g#d#]	*k[f#c#g#d#]	*	*k[f#c#g#d#]	*	*
*c#:	*c#:	*	*c#:	*	*
*M4/4	*M4/4	*	*M4/4	*	*
*met(c)	*met(c)	*	*met(c)	*	*
=1	=1	=1	=1	=1	=1
!	!	!	!LO:TX:t=P:problem=4\, 8\left or middle or right	!	!
!	!	!	!LO:TX:t=P:problem=16\left or middle	!	!
!	!LO:TX:a:t=Andantino cantabile	!	!LO:TX:t=Zygmunt Noskowski\nKsiężyc\nPieśń na jeden głos z towarzyszeniem\nfortepianu\nWiersz Andrzeja Niemojewskiego	!	!
[2.CC#^^/	4r	p	1r	.	.
.	(4e/ 4g# 4b	.	.	.	.
.	4c#/ 4f# 4a	.	.	.	.
8CC#/L]	4e/) 4g# 4b	.	.	.	.
(16C#/L	.	.	.	.	.
16CC#/JJ)	.	.	.	.	.
=2	=2	=2	=2	=2	=2
[2.CC#^^/	4r	.	1r	.	.
.	(4c#/ 4f# 4a	.	.	.	.
.	4B/ 4e 4g#	<	.	.	.
8CC#/L]	4c#/) 4f# 4a	[[	.	.	.
(16C#/L	.	.	.	.	.
16CC#/JJ)	.	.	.	.	.
=3	=3	=3	=3	=3	=3
[2.CC#^^/	4r	.	1r	.	.
.	(4A/ 4dn 4f#	.	.	.	.
.	4G#/ 4c# 4e	.	.	.	.
8CC#/L]	4A/) 4d 4f#	.	.	.	.
(16C#/L	.	.	.	.	.
16CC#/JJ)	.	.	.	.	.
=4	=4	=4	=4	=4	=4
(4.CC#/	(4c#/ 4e 4g#	.	1r	.	.
.	4G#/) 4c# 4e	>	.	.	.
16BBB/LL	.	.	.	.	.
16AAA/JJ)	.	.	.	.	.
(4.GGG#/	(4B/ 4d#X 4g#	.	.	.	.
.	4G#/) 4B 4d#	]	.	.	.
16AAA/LL	.	.	.	.	.
16GGG#/JJ)	.	.	.	.	.
=5	=5	=5	=5	=5	=5
!	!	!	!	!	!LO:DY:a
2.CC#/	(4c#/ 4e 4g#	p	4.g#/	Księ-	p
.	4G#/ 4c# 4e	.	.	.	.
.	.	.	8e/	-życ	.
.	4c#/ 4e 4g#	.	(8b/L	ci-	.
.	.	.	8a/J)	.	.
(8.CC#/L	4G#/) 4c# 4e	.	4g#/	-cho	.
16BBB/Jk)	.	.	.	.	.
!!LO:LB:g=original
=6	=6	=6	=6	=6	=6
2.AAA/	(4c#/ 4d# 4f#	.	(8f#/	pły-	.
.	.	.	4ee\)	.	.
.	4F#/ 4c# 4d#	.	.	.	.
.	.	.	8dd#\	-nie	.
.	4c#/ 4d# 4f#	.	4cc#\	gó-	.
(8.BBB/L	4F#/) 4c# 4d#	.	4dd#\	-rą,	.
16AAA/Jk)	.	.	.	.	.
!!linebreak:original
=7	=7	=7	=7	=7	=7
2.GGG#/	(4F#/ 4c# 4d#	.	8d#/	Po-	.
.	.	.	8e/	-nad	.
.	4c#/) 4d# 4f#	.	8f#/	zie-	.
.	.	.	8cc#\	-mią	.
.	(4B#X/ 4d# 4a	.	(8b#X/L	pły-	.
.	.	.	8a/J)	.	.
(8.GG#/L	4A/) 4B# 4d#	.	4b#\	-nie	.
16GGG#/Jk)	.	.	.	.	.
=8	=8	=8	=8	=8	=8
2.CC#/	(4c#/ 4e 4g#	.	(8g#/L	w	.
.	.	.	[>8cc#/J)	mgły,	.
.	4G#/ 4c# 4e	.	2cc#\]	.	.
.	4c#/ 4e 4g#	.	.	.	.
(8.BBB/L	4G#/) 4c# 4e	.	4r	.	.
16AAA#X/Jk)	.	.	.	.	.
=9	=9	=9	=9	=9	=9
(2.GGG#/	(4Bn/ 4d# 4g#	.	8dd#\	Zie-	.
!	!	!	!	!	!LO:DY:a
.	.	.	8b\	-mia	<
.	4G#/) 4B 4d#	<	8f##X/	fo-	.
.	.	.	8g#/	-łem	.
.	(4c#/ 4e 4a#X	.	4a#X/	śni	.
4GG#/)	4G#/) 4c# 4e	[	(8g#/L	po-	.
.	.	.	8e/J)	.	[
!!LO:LB:g=original
=10	=10	=10	=10	=10	=10
4..GGG#/	(4d#/ 4f# 4b	.	(4d#/	-nu-	.
!	!	!	!LO:TX:t=P:problem=kasownik przed krzyżykiem	!	!LO:DY:a
.	4B/) 4d# 4f#	>	8f#X/L	.	>
.	.	.	8g#/J)	.	.
(16GG#/	.	.	.	.	.
4..CC#/)	(4c#/ 4e 4a#X	.	4e/	-ro	.
.	4G#/) 4c# 4e	]]	4r	.	]
(16BBB/	.	.	.	.	.
!!linebreak:original
=11	=11	=11	=11	=11	=11
!	!	!	!	!	!LO:DY:a
4..AAA#X/)	(4c#/ 4e 4a#X	p	8c#/	Ciem-	p
.	.	.	8d#/	-ne	.
.	4G#/) 4c# 4e	.	4e/	sny,	.
(16AA#X/	.	.	.	.	.
4..DD#/)	(4c#/ 4f##X 4b	.	8r	.	.
.	.	.	4b\	ciem-	.
.	4F##X/) 4c# 4d#	.	.	.	.
.	.	.	8f##X/	-ne	.
(16DD#/	.	.	.	.	.
=12	=12	=12	=12	=12	=12
4..GGG#/)	(4B/ 4d# 4g#	.	2g#/	sny.	.
.	4G#/) 4B 4d#	.	.	.	.
(16GG#/	.	.	.	.	.
2FF#T/)	(4B#X/ 4d# 4g#	.	2r	.	.
.	4G#/) 4B# 4d#	.	.	.	.
(16qqEE/LL	.	.	.	.	.
16qqDD#/JJ	.	.	.	.	.
=13	=13	=13	=13	=13	=13
*ped	*Xtuplet	*	*	*	*
!	!LO:TUP:problem=brak klamry, numer	!	!	!	!
2CC#/)	(12e/L 12g#	pp	4.g#/	Chmu-	.
.	12G#/ 12c#	.	.	.	.
.	12e/J 12g#	.	.	.	.
.	4G#/) 4c#	.	.	.	.
.	.	.	8e/	-ry	.
!	!LO:TX:b:t=con delicatezza.	!	!	!	!
!	!LO:TUP:a	!	!	!	!
!	!LO:TUP:problem=brak klamry, numer	!	!	!	!
2r	12r	.	(8b/L	w gó-	.
.	(12ee\L 12gg#	.	.	.	.
.	.	.	8a/J)	.	.
.	12g#\J) 12cc#	.	.	.	.
!	!LO:TUP:problem=brak klamry, numer	!	!	!	!
.	12r	.	4g#/	-rze	.
.	(12e/L 12g#	.	.	.	.
*Xped	*	*	*	*	*
.	12G#/J) 12c#	.	.	.	.
!!LO:LB:g=original
=14	=14	=14	=14	=14	=14
*ped	*	*	*	*	*
2AAA/	(12d#/L 12f#	.	(8f#/	to-	.
.	12F#/ 12c#	.	.	.	.
.	.	.	4ee\)	.	.
.	12d#/J 12f#	.	.	.	.
.	4F#/) 4c#	.	.	.	.
.	.	.	8dd#\	-czą	.
2r	12r	.	4cc#\	woj-	.
.	(12dd#\L 12ff#	.	.	.	.
.	12f#\J) 12cc#	.	.	.	.
.	12r	.	4dd#\	-nę,	.
.	(12d#/L 12f#	.	.	.	.
*Xped	*	*	*	*	*
.	12F#/J) 12c#	.	.	.	.
!!linebreak:original
=15	=15	=15	=15	=15	=15
*ped	*	*	*	*	*
4GGG#t\	12r	.	8d#/	Zie-	.
.	(>12c#/L 12d#	.	.	.	.
.	.	.	8e/	-mia	.
.	12D#</J 12F<#	.	.	.	.
4GGG#\	12d#/L 12f#	.	8f#/	do-	.
.	12F#</ 12c#	.	.	.	.
.	.	.	8cc#\	-łem	.
.	12d#/J) 12f#	.	.	.	.
*Xped	*	*	*	*	*
*ped	*	*	*	*	*
4GGG#t\	12r	.	(8b#X/L	głu-	.
.	(>12B#<X/L 12d#	.	.	.	.
.	.	.	8a/J)	.	.
.	12D#</J 12F#<	.	.	.	.
4GGG#\	12d#/L 12g#	.	4b#\	-cho	.
.	12F#</ 12B#<	.	.	.	.
*Xped	*	*	*	*	*
.	12d#/J) 12g#	.	.	.	.
=16	=16	=16	=16	=16	=16
*ped	*	*	*	*	*
(2CC#\	12r	.	(8g#/L	drży,	.
.	(>12c#/L 12e	.	.	.	.
.	.	.	[>8cc#/J)	.	.
.	12E</J 12G#<	.	.	.	.
.	4e/) 4g#	.	2cc#\]	.	.
2C#/)	12r	.	.	.	.
.	(12e/L 12g#	.	.	.	.
.	12G#/J 12c#	.	.	.	.
*Xped	*	*	*	*	*
.	4g#\) 4cc#	.	4r	.	.
=17	=17	=17	=17	=17	=17
*	*^	*	*	*	*
*ped	*	*	*	*	*	*
2CC#/	4e/ 4g# 4bn	4ryy	.	8bn\	Sny	.
.	.	.	.	8g#/	ją	.
!	!LO:TUP:problem=brak klamry, numer	!	!	!	!	!
.	12r	4ryy	.	8e/	bu-	.
.	(12G#/L 12c# 12e	.	.	.	.	.
.	.	.	.	8b\	-dzą	.
*Xped	*	*	*	*	*	*
.	12e/J) 12g# 12b	.	>	.	.	.
2C#/	(<8b/L	4c#\ 4e	.	(8b\	nie-	.
.	8a/J)	.	.	4a/)	.	.
!	!LO:TUP:problem=brak klamry, numer	!	!	!	!	!
.	12r	4ryy	.	.	.	.
.	(12A/L 12c# 12e	.	]	.	.	.
.	.	.	.	8g#/	-spo-	.
.	12B/J) 12e 12g#	.	.	.	.	.
!!LO:PB:g=original
=18	=18	=18	=18	=18	=18	=18
2FF#/	4f#/	4.A\ 4.e	<	(4f#/	-koj-	.
.	8g#/L	.	.	8g#/L	.	.
.	8f#/J	8A\ 8d#	.	8f#/J)	.	.
[4AA\	2D#/ 2F# 2c#	2ryy	[ >	4c#/	-ne,	.
!LO:TUP:problem=klamra łukowa	!	!	!	!	!	!
12AA\L]	.	.	.	4r	.	.
12BB\	.	.	.	.	.	.
12AA\J	.	.	.	.	.	.
*	*v	*v	*	*	*	*
!!pagebreak:original
=19	=19	=19	=19	=19	=19
2GG#\	4D#</ 4F#< 4B#<X	] p	8B#X/	ciem-	.
.	.	.	8c#/	-ne	.
!	!LO:TUP:problem=brak klamry, numer	!	!	!	!
.	12r	.	4d#/	sny,	.
.	(>12B#X/L 12d#	.	.	.	.
.	12D#</J 12F#<	.	.	.	.
2GGG#/	4B#/) 4d#	.	8r	.	.
.	.	.	4f#/	ciem-	.
!	!LO:TUP:problem=brak klamry, numer	!	!	!	!
.	12r	.	.	.	.
.	(12B#/L 12f#	.	.	.	.
.	.	.	8e/	-ne	.
.	12F#</J) 12e	.	.	.	.
=20	=20	=20	=20	=20	=20
2.CC#\	12r	.	2c#/	sny!	.
!	!	!LO:DY:a	!	!	!
.	(<12E</L 12c#<	<	.	.	.
.	12G<#/J	.	.	.	.
.	12A</L	.	.	.	.
.	12G#</	.	.	.	.
.	12E</J	.	.	.	.
.	12D#</L	.	2r	.	.
.	12E</	.	.	.	.
.	12F##<X/J	.	.	.	.
4r	12G#</L	.	.	.	.
.	12c#/	.	.	.	.
.	12d#/J)	[[	.	.	.
=21	=21	=21	=21	=21	=21
!	!LO:TX:a:t=accelrando	!	!	!	!
1r	(12e/L	.	1r	.	.
.	12dd#/	.	.	.	.
.	12cc#/J	.	.	.	.
.	12a/L	.	.	.	.
.	12g#/	.	.	.	.
.	12d#/J	.	.	.	.
.	12e/L	.	.	.	.
.	12B#<X/	.	.	.	.
.	12c#</J	.	.	.	.
.	12A</L	.	.	.	.
.	12G#</	.	.	.	.
.	12E</J)	.	.	.	.
!!LO:LB:g=original
=22	=22	=22	=22	=22	=22
!	!	!LO:HP:a:t=e crescendo	!	!	!
4rEE	(12D#</L	<	1r	.	.
.	12E</	.	.	.	.
.	12G#</J	.	.	.	.
2.CC#\ 2.C#	12c#</L	.	.	.	.
.	12G#</	.	.	.	.
.	12e</J	.	.	.	.
.	12d#</L	.	.	.	.
.	12c#</	.	.	.	.
.	12B#<X/J	.	.	.	.
.	12c#</L	.	.	.	.
.	12G#</)	.	.	.	.
.	12E</J	.	.	.	.
=23	=23	=23	=23	=23	=23
4rEE	(12D#</L	.	1r	.	.
.	12E</	.	.	.	.
.	12G#</J	.	.	.	.
2.BBBn\ 2.BBn	12c#</L	.	.	.	.
.	12G#</	.	.	.	.
.	12e</J	.	.	.	.
.	12d#</L	.	.	.	.
.	12c#</	.	.	.	.
.	12B#<X/J	.	.	.	.
.	12c#</L	.	.	.	.
.	12G#</	.	.	.	.
.	12E</J)	.	.	.	.
*kcancel	*kcancel	*	*kcancel	*	*
=24||	=24||	=24||	=24||	=24||	=24||
*k[f#c#g#]	*k[f#c#g#]	*	*k[f#c#g#]	*	*
*ped	*	*	*	*	*
!	!	!	!LO:TX:a:t=Quasi Allegro	!	!LO:DY:a
2AAA\ 2AA	(<16C<^^/LL	mf	4c#/	Ty	f
.	16E</	.	.	.	.
.	16A</	.	.	.	.
.	16c#</JJ)	.	.	.	.
.	(<16F#<^^/LL	.	4f#/	po-	.
.	16A</	.	.	.	.
.	16c#</	.	.	.	.
.	16f#/JJ)	.	.	.	.
2rEE	(<16D#<X^^/LL	.	4d#X/	-wró-	.
.	16F#</	.	.	.	.
.	16A</	.	.	.	.
.	16d#X/JJ)	.	.	.	.
.	(<16E<^^/LL	.	8e/	-cisz	.
.	16A</	.	.	.	.
.	16c#/	.	16r	.	.
.	16e/JJ)	.	16a/	sło-	.
!!LO:LB:g=original
=25	=25	=25	=25	=25	=25
2AAA\ 2AA	(<16E#<X^^/LL	.	4e#X/	-necz-	.
.	16A</	.	.	.	.
.	16c#/	.	.	.	.
.	16e#X/JJ)	.	.	.	.
.	(<16F#<^^/LL	<	4f#/	-ko,	.
.	16A</	.	.	.	.
.	16d/	.	.	.	.
.	16f#/JJ)	.	.	.	.
2rEE	(<16A<^^/LL	.	2r	.	.
.	16d/	.	.	.	.
.	16f#/	.	.	.	.
.	16a/JJ)	.	.	.	.
.	(16d^^/LL	.	.	.	.
.	16f#/	.	.	.	.
.	16a/	[	.	.	.
.	16dd/JJ)	.	.	.	.
=26	=26	=26	=26	=26	=26
2BBB/ 2BB	(16G#^^/LL	.	4g#/	ty	.
.	16d/	.	.	.	.
.	16en/	.	.	.	.
.	16g#/JJ)	.	.	.	.
.	(16A^^/LL	.	4a/	po-	.
.	16d/	.	.	.	.
.	16e/	.	.	.	.
.	16a/JJ)	.	.	.	.
2EE/ 2E	(16A#X^^/LL	.	4a#X/	-wró-	.
.	16d/	.	.	.	.
.	16e/	.	.	.	.
.	16a#X/JJ)	.	.	.	.
.	(16c#^^/LL	.	8cc#\	-cisz,	.
.	16e/	.	.	.	.
.	16g#/	.	16r	.	.
.	16B/JJ)	.	16b\	ko-	.
=27	=27	=27	=27	=27	=27
2FF#/ 2F#	(16d^^/LL	.	4dd\	-cha-	.
.	16f#/	.	.	.	.
.	16an/	.	.	.	.
.	16dd/JJ)	.	.	.	.
.	(16c#^^/LL	.	4cc#\	-ne,	.
.	16f#/	.	.	.	.
.	16a/	.	.	.	.
.	16cc#/JJ)	.	.	.	.
(4EE/ 4E	16r	.	4r	.	.
.	(16c#/LL	.	.	.	.
.	16f#/	.	.	.	.
.	16a/JJ	.	.	.	.
4DD/) 4D	16cc#/LL	.	(8cc#\L	Gdy	.
.	16a/	.	.	.	.
.	16f#/	.	8dd\J)	.	.
.	16d/JJ) 16dd	.	.	.	.
!!LO:LB:g=original
=28	=28	=28	=28	=28	=28
2CC#/ 2C#	16r	.	4ee\	noc	.
.	(16e/LL	.	.	.	.
.	16f#/	.	.	.	.
.	16a/JJ	.	.	.	.
.	8ee\)	.	2f#/	pierzch-	.
.	8r	.	.	.	.
2DD\ 2D	16r	.	.	.	.
.	(<16F#</LL	.	.	.	.
.	16A</	.	.	.	.
.	16c#/JJ	.	.	.	.
.	16f#/LL	.	[4cc#\	-nie	.
.	16c#/	.	.	.	.
.	16A</	.	.	.	.
.	16F#</JJ)	.	.	.	.
=29	=29	=29	=29	=29	=29
2BBB\ 2BB	16r	.	4cc#\]	.	.
.	(16F#</LL	.	.	.	.
.	16B</	.	.	.	.
.	16d/JJ	.	.	.	.
.	16f#/LL	.	(2d/	z tej	.
.	16d/	.	.	.	.
.	16B</	.	.	.	.
.	16F#</JJ)	.	.	.	.
2GGG#\ 2GG#	16r	.	.	.	.
.	(16F#</LL	.	.	.	.
.	16B</	.	.	.	.
.	16d/JJ	.	.	.	.
.	16f#/LL	.	8b/L	.	.
.	16d/	.	.	.	.
.	16B</	.	8a/J)	.	.
.	16F#</JJ)	.	.	.	.
=30	=30	=30	=30	=30	=30
*^	*	*	*	*	*
2ryy	2EE\ 2BB	16r	.	(<2g#/	zie-	.
.	.	(<16G#</LL	.	.	.	.
.	.	16B</	.	.	.	.
.	.	16e/JJ	.	.	.	.
.	.	16g#/LL	.	.	.	.
.	.	16e/	.	.	.	.
.	.	16B</	.	.	.	.
.	.	16G#</JJ)	.	.	.	.
(4C#/	2EE\	16r	.	8f#/L	.	.
.	.	(16F#</LL	.	.	.	.
.	.	16A#<X/	.	8a#X/J	.	.
.	.	16e/JJ	.	.	.	.
4D#X/)	.	16f#/LL	.	4b\)	.	.
.	.	16d#X/	.	.	.	.
.	.	16B</	.	.	.	.
.	.	16An</JJ)	.	.	.	.
*v	*v	*	*	*	*	*
!!LO:LB:g=original
=31	=31	=31	=31	=31	=31
2.EE/ 2.E	4r	.	2e/	-mi,	.
.	(16G#^^/LL	.	.	.	.
.	16B/	.	.	.	.
.	16e/	.	.	.	.
.	16g#/JJ)	.	.	.	.
.	(16B^^/LL	.	2r	.	.
.	16e/	.	.	.	.
.	16g#/	.	.	.	.
.	16b/JJ)	.	.	.	.
4r	(16G#^^/LL	.	.	.	.
.	16B/	.	.	.	.
.	16e/	.	.	.	.
.	16g#/JJ)	.	.	.	.
=32	=32	=32	=32	=32	=32
2BBB\ 2BB	(16F#<^^/LL	.	4f#/	Wró-	.
.	16B</	.	.	.	.
.	16dn/	.	.	.	.
.	16f#/JJ)	.	.	.	.
.	(16c#^^/LL	.	4cc#\	-cisz	.
.	16d/	.	.	.	.
.	16f#/	.	.	.	.
.	16cc#/JJ)	.	.	.	.
2DD\ 2D	(16A#X^^/LL	.	4a#X/	do	.
.	16d/	.	.	.	.
.	16f#/	.	.	.	.
.	16a#X/JJ)	.	.	.	.
.	(16B^^/LL	.	8b\	nas	.
.	16d/	.	.	.	.
.	16f#/	.	16r	.	.
.	16b/JJ)	.	16f#/	prze-	.
=33	=33	=33	=33	=33	=33
2EE/ 2E	16r	.	4a/	-czys-	.
.	(16An^^/LL	.	.	.	.
.	16B/	.	.	.	.
.	16e/JJ	.	.	.	.
.	16G#/LL	.	4g#/	-te,	.
.	16B/	.	.	.	.
.	16e/	.	.	.	.
.	16g#/JJ)	.	.	.	.
2DD#X/ 2D#X	16r	.	2r	.	.
!	!	!LO:HP:a	!	!	!
.	(16G#/LL	<	.	.	.
.	16B#X/	.	.	.	.
.	16f#/JJ	.	.	.	.
.	16g#/LL	.	.	.	.
.	16f#/	.	.	.	.
.	16B#/	[	.	.	.
.	16G#/JJ)	.	.	.	.
!!LO:PB:g=original
=34	=34	=34	=34	=34	=34
!	!	!	!	!	!LO:DY:a
2CC#/ 2C#	16r	f	4g#/	mgłą	f
.	(16G#/LL	.	.	.	.
.	16c#/	.	.	.	.
.	16e#X/JJ	.	.	.	.
.	16g#/LL	.	4ee#X\	zło-	.
.	16e#/	.	.	.	.
.	16c#/	.	.	.	.
.	16G#/JJ)	.	.	.	.
2EE#X/ 2E#X	16r	.	4b#X\	-cis-	.
.	(16B#X/LL	.	.	.	.
.	16e#/	.	.	.	.
.	16g#/JJ	.	.	.	.
.	16c#/LL	.	8cc#\	-tą	.
.	16e#/	.	.	.	.
.	16g#/	.	16r	.	.
.	16cc#/JJ)	.	16g#/	ob-	.
=35	=35	=35	=35	=35	=35
2FF#/ 2F#	16r	.	4a#X/	-la-	.
.	(16A#X/LL	.	.	.	.
.	16c#/	.	.	.	.
.	16f#/JJ	.	.	.	.
.	16a#X/LL	.	4f#/	-ne	.
.	16f#/	.	.	.	.
.	16c#/	.	.	.	.
.	16A#/JJ)	.	.	.	.
2EEn/ 2En	16r	.	4r	.	.
.	(16A#/LL	.	.	.	.
.	16c#/	.	.	.	.
.	16f#/JJ	.	.	.	.
.	16g#/LL	.	8.g#/	I	.
.	16c#/	.	.	.	.
.	16f#/	.	.	.	.
.	16a#X/JJ)	.	16a#X/	tchnie-	.
=36	=36	=36	=36	=36	=36
2DD#X/ 2D#X	16r	.	(2.bn\	-nia-	.
.	(16Bn/LL	.	.	.	.
.	16d#X/	.	.	.	.
.	16f#/JJ	.	.	.	.
.	16b/LL	.	.	.	.
.	16f#/	.	.	.	.
.	16d#/	.	.	.	.
.	16B/JJ)	.	.	.	.
2BBB/ 2BB	16r	.	.	.	.
.	(16An/LL	.	.	.	.
.	16B/	.	.	.	.
.	16d#/JJ	.	.	.	.
.	16f#/LL	.	4f#/)	.	.
.	16d#/	.	.	.	.
.	16B/	.	.	.	.
.	16A/JJ)	.	.	.	.
!!LO:LB:g=original
=37	=37	=37	=37	=37	=37
2EE/ 2E	16r	.	2g#/	-mi	.
.	(16G#/LL	.	.	.	.
.	16B/	.	.	.	.
.	16e/JJ	.	.	.	.
.	16g#/LL	.	.	.	.
.	16e/	.	.	.	.
.	16B/	.	.	.	.
.	16G#/JJ)	.	.	.	.
(4DDn/ 4Dn	16r	.	4r	.	.
.	(16B/LL	.	.	.	.
.	16e/	.	.	.	.
.	16f#/JJ	.	.	.	.
4CC#/) 4C#	16g#/LL	.	(8g#/L	cie-	.
.	16c#/	.	.	.	.
.	16e/	.	8a/J)	.	.
.	16a/JJ)	.	.	.	.
=38	=38	=38	=38	=38	=38
2BBB/ 2BB	16r	.	(2dd\	-płe-	.
.	(16d/LL	.	.	.	.
.	16f#/	.	.	.	.
.	16a/JJ	.	.	.	.
.	16dd/LL	.	.	.	.
.	16a/	.	.	.	.
.	16f#/	.	.	.	.
.	16d/JJ)	.	.	.	.
2AAA\ 2AA	16r	.	4.d/	.	.
.	(<16F#</LL	.	.	.	.
.	16B</	.	.	.	.
.	16d/JJ	.	.	.	.
.	16f#/LL	.	.	.	.
.	16d/	.	.	.	.
.	16B</	.	8f#/)	.	.
.	16F#</JJ)	.	.	.	.
=39	=39	=39	=39	=39	=39
2GGG#\ 2GG#	16r	.	2e/	-mi!	.
.	(<16E</LL	.	.	.	.
.	16B</	.	.	.	.
.	16d/JJ	.	.	.	.
.	16e/LL	.	.	.	.
.	16d/	.	.	.	.
.	16B/	.	.	.	.
.	16e/JJ)	.	.	.	.
4FFF#^>\ 4FF#	(<16F#<^^/LL	.	2r	.	.
!	!LO:TX:t=ritenuto.	!	!	!	!
.	16A</	.	.	.	.
.	16d/	.	.	.	.
.	16f#/JJ)	.	.	.	.
4GGG#^>\ 4GG#	(<16E<^^/LL	.	.	.	.
.	16B</	.	.	.	.
.	16d/	.	.	.	.
.	16e/JJ)	.	.	.	.
!!LO:LB:g=original
=40	=40	=40	=40	=40	=40
2AAA\ 2AA	(<16C#<^^/LL	mf	4c#/	Ty	.
.	16E</	.	.	.	.
.	16A</	.	.	.	.
.	16c#</JJ)	.	.	.	.
.	(<16F#<^^/LL	.	4f#/	za-	.
.	16A</	.	.	.	.
.	16c#/	.	.	.	.
.	16f#/JJ)	.	.	.	.
2rEE	(<16D#<X^^/LL	.	4d#X/	-kwit-	.
.	16F#</	.	.	.	.
.	16A</	.	.	.	.
.	16d#X/JJ)	.	.	.	.
.	(<16E<^^/LL	.	8e/	-niesz,	.
.	16A</	.	.	.	.
.	16c#/	.	16r	.	.
.	16e/JJ)	.	16a/	ró-	.
=41	=41	=41	=41	=41	=41
2AAA\ 2AA	(<16E#<X^^/LL	.	4e#X/	-życz-	.
.	16A</	.	.	.	.
.	16c#/	.	.	.	.
.	16e#X/JJ)	.	.	.	.
.	(<16F#<^^/LL	.	4f#/	-ko	.
.	16A</	.	.	.	.
.	16dn/	.	.	.	.
.	16f#/JJ)	.	.	.	.
2r	(<16A<^^/LL	.	2r	.	.
.	16d/	.	.	.	.
.	16f#/	.	.	.	.
.	16a/JJ)	.	.	.	.
.	(16d^^/LL	.	.	.	.
.	16f#/	.	.	.	.
.	16a/	.	.	.	.
.	16dd/JJ)	.	.	.	.
=42	=42	=42	=42	=42	=42
2BBB/ 2BB	(16G#^^/LL	.	4g#/	ty	.
.	16d/	.	.	.	.
.	16e/	.	.	.	.
.	16g#/JJ)	.	.	.	.
.	(16A^^/LL	.	4a/	o-	.
.	16d/	.	.	.	.
.	16e/	.	.	.	.
.	16a/JJ)	.	.	.	.
2EE/ 2E	(16A#X^^/LL	.	4a#X/	-sy-	.
.	16d/	.	.	.	.
.	16e/	.	.	.	.
.	16a#X/JJ)	.	.	.	.
.	(16c#^^/LL	.	8.cc#\	-piesz	.
.	16e/	.	.	.	.
.	16g#/	.	.	.	.
.	16B/JJ)	.	16b\	się	.
!!LO:LB:g=original
=43	=43	=43	=43	=43	=43
2EE^^/ 2E	(16d^^/LL	.	4dd\	kwia-	.
.	16gn/	.	.	.	.
.	16b-X/	.	.	.	.
.	16dd/JJ)	.	.	.	.
.	(16cn^^/LL	.	4ccn\	-tem,	.
.	16g/	.	.	.	.
.	16b-/	.	.	.	.
.	16ccn/JJ)	.	.	.	.
(4Gn\	16r	.	2r	.	.
.	(16c/LL	>	.	.	.
.	16e/	.	.	.	.
.	16b-/JJ	.	.	.	.
4Cn/)	16cc/LL	.	.	.	.
.	16b-/	.	.	.	.
.	16e/	.	.	.	.
.	16c/JJ)	]]	.	.	.
=44	=44	=44	=44	=44	=44
2FFn/ 2Fn	16r	p	2r	.	.
.	(16A/LL	.	.	.	.
.	16cn/	.	.	.	.
.	16fn/JJ	.	.	.	.
.	16a/LL	.	.	.	.
.	16f/	.	.	.	.
.	16c/	.	.	.	.
.	16A/JJ)	.	.	.	.
!	!	!	!	!	!LO:DY:a
4EE/ 4E	16r	.	4a/	Kie-	p
.	(16A/LL	.	.	.	.
.	16f/	.	.	.	.
.	16c/JJ	.	.	.	.
4DD/ 4D	16a/LL	.	4b-X\	-dy	.
.	16f/	.	.	.	.
.	16c/	.	.	.	.
.	16A/JJ)	.	.	.	.
=45	=45	=45	=45	=45	=45
4CCn/ 4Cn	16r	.	(4ccn\	słon-	.
.	(16cn/LL	.	.	.	.
.	16gn/	.	.	.	.
!	!	!LO:HP:t=cresc	!	!	!LO:HP:t=cresc
.	16e/JJ)	<	.	.	<
4BB-X\ 4B-X	16r	.	4gn/)	.	.
.	(16c/LL	.	.	.	.
.	16e/	.	.	.	.
.	16g/JJ)	.	.	.	.
4AA\ 4A	16r	.	4a/	-ce	.
.	(16c/LL	.	.	.	.
.	16e/	.	.	.	.
.	16a/JJ)	.	.	.	.
4GGn\ 4Gn	16r	.	4b-X\	cię	.
.	(16c/LL	.	.	.	.
.	16e/	.	.	.	.
.	16b-X/JJ)	.	.	.	.
!!LO:LB:g=original
=46	=46	=46	=46	=46	=46
4.FFn/ 4.Fn	16r	.	(2a/	zbu-	.
.	(16A/LL	.	.	.	.
.	16fn/	.	.	.	.
.	16cn/JJ	.	.	.	.
.	16a/LL	.	.	.	.
.	16f/	.	.	.	.
8EE/ 8E	16c/	.	.	.	.
.	16A/JJ)	.	.	.	.
2DD/ 2D	16r	.	4bn\	.	.
.	(16Bn/LL	.	.	.	.
.	16a/	.	.	.	.
.	16f/JJ	.	.	.	.
.	16ccn/LL	.	8ccn\L	.	.
.	16a/	.	.	.	.
.	16b/	.	8b\J)	.	.
.	16f/JJ)	.	.	.	.
=47	=47	=47	=47	=47	=47
2EE/ 2E	16r	.	2g#X/	-dzi,	.
.	(16G#X/LL	.	.	.	.
.	16e/	.	.	.	.
.	16B/JJ	.	.	.	.
.	16g#/LL	.	.	.	.
.	16e/	.	.	.	.
.	16B/	.	.	.	.
.	16G#/JJ)	.	.	.	.
2r	(16b/LL	.	2r	.	.
.	16g#/	.	.	.	.
.	16e/	.	.	.	.
.	16B/JJ)	.	.	.	.
.	16g#/LL	.	.	.	.
.	16e/	.	.	.	.
.	16B/	.	.	.	.
.	16G#/JJ	.	.	.	.
=48	=48	=48	=48	=48	=48
!	!	!	!	!	!LO:DY:a
2BBB/ 2BB	16r	f	4f#/	Kie-	f
.	(16F#/LL	.	.	.	.
.	16d/	.	.	.	.
.	16f#/JJ)	.	.	.	.
.	(16c#^^/LL	.	4cc#\	-dy	.
.	16d/	.	.	.	.
.	16f#/	.	.	.	.
.	16cc#/JJ)	.	.	.	.
2DD/ 2D	(16A#X^^/LL	.	4a#X/	słoń-	.
.	16d/	.	.	.	.
.	16f#/	.	.	.	.
.	16a#X/JJ)	.	.	.	.
.	(16B^^/LL	.	8b\	-ce	.
.	16d/	.	.	.	.
.	16f#/	.	16r	.	.
.	16b/JJ)	.	16f#/	za-	.
!!LO:LP:g=original
=49	=49	=49	=49	=49	=49
2EE/ 2E	16r	.	4a/	-świe-	.
.	(16An/LL	.	.	.	.
.	16B/	.	.	.	.
.	16e/JJ	.	.	.	.
.	16G#/LL	.	4g#/	-ci	.
.	16B/	.	.	.	.
.	16e/	.	.	.	.
.	16g#/JJ)	.	.	.	.
2DD#X/ 2D#X	16r	.	8r	.	.
.	(16G#/LL	.	.	.	.
.	16f#/	.	8g#/	po-	.
.	16B#X/JJ	.	.	.	.
.	16g#/LL	.	8a#X/	-nad	.
.	16f#/	.	.	.	.
.	16B#/	.	8b#X\	u-	.
.	16G#/JJ)	.	.	.	.
=50	=50	=50	=50	=50	=50
2.CC#/ 2.C#	16r	.	(2dd#X\	-śpio-	.
.	(16G#/LL	.	.	.	.
.	16f#/	.	.	.	.
.	16d#X/JJ	.	.	.	.
.	16g#/LL	.	.	.	.
.	16f#/	.	.	.	.
.	16d#/	.	.	.	.
.	16B#X/JJ)	.	.	.	.
.	(16g#/LL	.	4cc#\)	.	.
.	16e/	.	.	.	.
.	16c#/	.	.	.	.
.	16G#/JJ)	.	.	.	.
4BBBn/ 4BBn	(16g#/LL	.	4ee\	-nym	.
.	16e/	.	.	.	.
.	16c#/	.	.	.	.
.	16G#/JJ)	.	.	.	.
=51	=51	=51	=51	=51	=51
2.AAA/ 2.AA	16r	.	4ee\	świa-	.
.	(16F#/LL	.	.	.	.
.	16e/	.	.	.	.
.	16c#/JJ	.	.	.	.
.	16f#/LL	.	4f#/	-tem,	.
.	16e/	.	.	.	.
.	16c#/	.	.	.	.
.	16F#/JJ)	.	.	.	.
.	4c#^^/ 4d#X 4f#	.	4r	.	.
4r	4r	.	(8dd#X\L	Kra-	.
.	.	.	8cc#\J)	.	.
!!LO:LB:g=original
=52	=52	=52	=52	=52	=52
1FF# 1C#	4Bn:/ 4d#X: 4g#: 4bn:	.	4bn\	-i-	.
.	4A:/ 4c#: 4f#: 4a:	.	4cc#\	-ną	.
.	2A/ 2c# 2d#	.	4d#X/	mart-	.
.	.	.	4cc#\	-wych	.
=53	=53	=53	=53	=53	=53
2r	2r	.	(2.b\	lu-	.
2DD#X/ 2D#X	16r	p	.	.	.
.	(16A/LL	.	.	.	.
.	16f#/	.	.	.	.
.	16c#/JJ	.	.	.	.
.	16a/LL	.	4a/)	.	.
.	16f#/	.	.	.	.
.	16c#/	.	.	.	.
.	16A/JJ)	.	.	.	.
=54	=54	=54	=54	=54	=54
2GG#/ 2D#X	16r	.	2g#/	-dzi!	.
.	(16G#/LL	.	.	.	.
.	16f#/	.	.	.	.
.	16B#X/JJ	.	.	.	.
.	16g#/LL	<	.	.	.
.	16f#/	.	.	.	.
.	16B#/	.	.	.	.
.	16G#/JJ)	.	.	.	.
2GGG#/ 2GG#	16r	.	2r	.	.
.	(16A/LL	.	.	.	.
.	16f#/	.	.	.	.
.	16c#/JJ	.	.	.	.
.	16g#/LL	.	.	.	.
.	16f#/	.	.	.	.
.	16c#/	.	.	.	.
.	16A/JJ)	[[	.	.	.
=55	=55	=55	=55	=55	=55
2GG#/	16r	.	1r	.	.
.	(16A#X/LL	.	.	.	.
.	16f#/	.	.	.	.
.	16c##X/JJ	.	.	.	.
.	16g#/LL	.	.	.	.
.	16f#/	.	.	.	.
.	16c##/	.	.	.	.
.	16A#/JJ)	.	.	.	.
2GGG#/	16r	.	.	.	.
.	(16Bn/LL	.	.	.	.
.	16f#/	.	.	.	.
.	16d#X/JJ	.	.	.	.
.	16g#/LL	.	.	.	.
.	16f#/	.	.	.	.
.	16d#/	.	.	.	.
.	16B/JJ)	.	.	.	.
!!LO:LB:g=original
=56	=56	=56	=56	=56	=56
[1GG#	16r	mf	1r	.	.
.	(16B#X/LL	.	.	.	.
.	16f#/	.	.	.	.
.	16d#X/JJ	.	.	.	.
.	16g#^^/LL	.	.	.	.
.	16f#/	.	.	.	.
.	16d#/	.	.	.	.
.	16B#/JJ	.	.	.	.
.	16bn^^/LL	.	.	.	.
.	16f#/	.	.	.	.
.	16d#/	.	.	.	.
.	16B#X/JJ	.	.	.	.
.	16a^^/LL	.	.	.	.
.	16f#/	.	.	.	.
.	16d#/	.	.	.	.
.	16B#/JJ	.	.	.	.
=57	=57	=57	=57	=57	=57
2GG#/]	16g#^^/LL	.	1ryy	.	.
.	16f#/	.	.	.	.
.	16d#X/	.	.	.	.
.	16B#X/JJ	.	.	.	.
.	16g#/LL	.	.	.	.
!	!LO:TX:a:t=poco rallent.	!	!	!	!
.	16f#/	.	.	.	.
.	16d#/	.	.	.	.
.	16Bn/JJ	.	.	.	.
2r	16g#/LL	.	.	.	.
.	16f#/	.	.	.	.
.	16c##X/	.	.	.	.
.	16A#X/JJ	.	.	.	.
.	16g#/LL	.	.	.	.
.	16f#/	.	.	.	.
.	16c#X/	.	.	.	.
.	16An/JJ	.	.	.	.
=58	=58	=58	=58	=58	=58
1r	16g#/LL	.	2r	.	.
.	16f#/	.	.	.	.
.	16B#X/	.	.	.	.
.	16G#/JJ)	.	.	.	.
.	4g#^^/	p	.	.	.
.	4g#/	.	4r	.	.
.	4g#/	.	8r	.	.
.	.	.	8g#/	Cóż	.
!!LO:LB:g=original
=59||	=59||	=59||	=59||	=59||	=59||
*k[f#c#g#d#]	*k[f#c#g#d#]	*	*k[f#c#g#d#]	*	*
!	!	!	!LO:TX:a:t=Andantino	!	!
2.CC#/	(4c#/ 4e 4g#	p	4.g#/	mi	.
.	4G#/ 4c# 4e	.	.	.	.
.	.	.	8e/	zo-	.
.	4c#/ 4e 4g#	.	(8b/L	-sta-	.
.	.	.	8a/J)	.	.
(8.CC#/L	4G#/) 4c# 4e	.	4g#/	-ło!	.
16BBBn/Jk)	.	.	.	.	.
=60	=60	=60	=60	=60	=60
2.AAA/	(4c#/ 4d# 4f#	.	8r	.	.
.	.	.	8f#/	To	.
.	4F#/ 4c# 4d#	.	8.ee\	zwię-	.
.	.	.	16cc#\	-dłe	.
.	4c#/ 4d# 4f#	.	4cc#\	kwie-	.
(8.BBB/L	4F#/) 4c# 4d#	.	8dd#\	-cie,	.
.	.	.	16r	.	.
16AAA/Jk)	.	.	16dd#\	Ta	.
=61	=61	=61	=61	=61	=61
2.GGG#/	(4F#/ 4c# 4d#	.	8d#/	czcza	.
.	.	.	8e/	piel-	.
.	4c#/) 4d# 4f#	.	8f#/	-grzym-	.
.	.	.	8cc#\	-ka	.
.	(4B#X/ 4d# 4a	.	8b#X\	po	.
.	.	.	4a^^/	mrocz-	.
(8.GG#/L	4A/) 4B# 4d#	.	.	.	.
.	.	.	8b#\	-nym	.
16GGG#/Jk)	.	.	.	.	.
!!LO:LB:g=original
=62	=62	=62	=62	=62	=62
2.CC#/	(4c#/ 4e 4g#	.	(8g#/L	świe-	.
.	.	.	8cc#/J)	.	.
.	4G#/ 4c# 4e	.	4cc#\	-cie,	.
.	4c#/ 4e 4g#	.	8r	.	.
.	.	.	8cc#\	Nie-	.
4r	4G#/) 4c# 4e	.	8bn\	-wy-	.
.	.	.	8cc#\	-pła-	.
=63	=63	=63	=63	=63	=63
(2.GGG#/	(4Bn/ 4d# 4g#	.	8dd#\	-ka-	.
.	.	.	8b\	-na	.
.	4G#/) 4B 4d#	.	(8f##X/L	łza	.
.	.	.	8g#/J)	.	.
.	(4c#/ 4e 4a#X	.	4a#X/	pod	.
4GG#/)	4G#/) 4e	.	(8g#/L	po-	.
.	.	.	8e/J)	.	.
=64	=64	=64	=64	=64	=64
(4.GGG#/	(4d#/ 4f# 4b	.	(8d#/L	-wie-	.
.	.	.	8f#X/J)	.	.
.	4B/) 4d# 4f# 4g#	.	8g#/	-ką,	.
8GG#/)	.	.	8r	.	.
(4.CC#/	(4c#/ 4e 4a#X	.	4e/	Resz-	.
.	4G#/) 4c# 4e	.	8.e/	-ta	.
8BBB/)	.	.	.	.	.
.	.	.	16d#/	da-	.
=65	=65	=65	=65	=65	=65
(4.AAA#X/	(4c#/ 4e 4a#X	.	(8c#/L	-le-	.
.	.	.	8d#/J)	.	.
.	4G#/) 4c# 4e	.	4e/	-ko...	.
8AA#X/)	.	.	.	.	.
2DD#/	(4c#/ 4f##X 4b	.	8r	.	.
.	.	.	8b\	ach,	.
.	4F##X/) 4c# 4d#	.	8.b\	jak	.
.	.	.	16f##X/	da-	.
!!LO:PB:g=original
=66	=66	=66	=66	=66	=66
(4.GGG#/	(4G#/ 4B 4d#	.	4a#X/	-le-	.
.	4B/) 4d# 4g#	.	4g#/	-ko!	.
8GG#/)	.	.	.	.	.
4FF#T/	4B#X/ 4d# 4g#	.	4r	.	.
!	!LO:TX:b:t=colla parte	!	!LO:TX:a:t=riten	!	!
(8qEE/	.	.	.	.	.
!	!	!	!LO:TUP:problem=brak klamry, numer	!	!
4DD#/)	4G#/ 4B# 4f# 4g#	.	12g#/	Kwia-	.
.	.	.	12an/	-ty	.
.	.	.	12g#/	się	.
=67	=67	=67	=67	=67	=67
!	!LO:TUP:problem=brak klamry, numer	!	!	!	!
2CC#/	(12e/L 12g#	pp	(8g#/L	w no-	.
.	12G#/ 12c#	.	.	.	.
.	.	.	8f#/J)	.	.
.	12e/J 12g#	.	.	.	.
.	4G#/) 4c#	<	8e/	-we	.
.	.	.	8b\	o-	.
2r	12r	.	4a/	-sy-	.
.	(12ee\L 12gg#	.	.	.	.
.	12g#\J) 12cc#	.	.	.	.
.	12r	[	4g#/	-pią	.
.	(12e/L 12g#	.	.	.	.
.	12G#/J) 12c#	.	.	.	.
=68	=68	=68	=68	=68	=68
2AAA/	(12d#/L 12f#	.	(8f#\L	cza-	.
.	12F#/ 12c#	.	.	.	.
.	.	.	8ee\J)	.	.
.	12d#/J 12f#	.	.	.	.
.	4F#/) 4c#	.	8dd#\	-ry,	.
.	.	.	8r	.	.
!	!LO:TUP:problem=brak klamry, numer	!	!	!	!
2r	12r	.	4cc#\	Wios-	.
.	(12dd#\L 12ff#	.	.	.	.
.	12f#\J) 12cc#	.	.	.	.
!	!LO:TUP:problem=brak klamry, numer	!	!	!	!
.	12r	.	8cc#\	-ny	.
.	(12d#/L 12f#	.	.	.	.
.	.	.	8dd#\	po	.
.	12F#/J) 12c#	.	.	.	.
!!LO:LB:g=original
=69	=69	=69	=69	=69	=69
!	!	!	!	!	!LO:DY:a
(2GGG#\	12r	.	8d#/	wios-	<
.	(>12c#/L 12d#	.	.	.	.
.	.	.	8e/	-nach	.
.	12D#</J 12F#<	.	.	.	.
.	12d#/L 12f#	<	8f#/	zbu-	.
.	12F#</ 12c#	.	.	.	.
.	.	.	8cc#\	-dzą	.
.	12d#/J) 12f#	.	.	.	.
2GG#\)	12r	.	(<8b#X/L	świat	[
.	(>12B#X/L 12d#	.	.	.	.
.	.	.	8a/J	.	.
.	12D#</J 12F#<	.	.	.	.
.	12d#/L 12g#	.	4b#\)	.	.
.	12F#</ 12B#X<	.	.	.	.
.	12d#/J) 12g#	.	.	.	.
=70	=70	=70	=70	=70	=70
2CC#\ 2GG#	12r	.	(8g#/L	sta-	.
.	(>12c#/L 12e	.	.	.	.
.	.	.	8cc#/J)	.	.
.	12E</J 12G#<	.	.	.	.
.	4e/) 4g#	.	4cc#\	-ry,	.
2C#/	12r	.	8r	.	.
.	(12e/L 12g#	.	.	.	.
.	.	.	8cc#\	Lecz	.
.	12G#/J 12c#	.	.	.	.
.	4g#\) 4cc#	>]	8g#/	już	.
.	.	.	8cc#\	nie	.
=71	=71	=71	=71	=71	=71
*	*^	*	*	*	*
(2CC#/	4e/ 4g# 4bn	4ryy	p	8bn\	błyś-	.
.	.	.	.	8g#/	-nie	.
!	!LO:TUP:problem=brak klamry, numer	!	!	!	!	!
.	12r	4ryy	.	(8e/L	sen	.
.	(12G#/L 12c# 12e	.	.	.	.	.
.	.	.	.	8b/J)	.	.
.	12e/J) 12g# 12b	.	.	.	.	.
2C#/)	(8b/L	4c#\ 4e	.	(8b/	pod	.
.	8a/J)	.	.	4a/)	.	.
!	!LO:TUP:problem=brak klamry, numer	!	!	!	!	!
.	12r	4ryy	.	.	.	.
.	(12A/L 12c# 12e	.	.	.	.	.
.	.	.	.	8g#/	po-	.
.	12B/J) 12e 12g#	.	.	.	.	.
!!LO:LB:g=original
=72	=72	=72	=72	=72	=72	=72
2FF#/	(4f#/	4.A\ 4.e	.	(4f#/	-wie-	.
.	8g#/L	.	.	8g#/L	.	.
.	8f#/J)	8A\ 8d#	.	8f#/J)	.	.
(>4AA\	2D#</ 2F#< 2c#	2ryy	.	4c#/	-ką,	.
8BB\L	.	.	.	4r	.	.
8AA\J)	.	.	.	.	.	.
*	*v	*v	*	*	*	*
=73	=73	=73	=73	=73	=73
!	!	!LO:HP:a	!	!	!
2GG#\	2D#</ 2F#< 2B#<X	<	(8B#X/L	Tam-	.
.	.	.	8c#/J)	.	.
.	.	.	4d#/	-to	.
2FF#;<\	2E<;/ 2A< 2c#<	[[	8r	.	.
.	.	.	8e/	da-	.
.	.	.	8.g#;/	-le-	.
.	.	.	16f#/	-ko...	.
=74	=74	=74	=74	=74	=74
2DD#^>\	2F#<^/ 2A< 2c#<	.	4r	.	.
.	.	.	4a/	ach!	.
!	!LO:TX:b:t=rall	!	!	!	!
2GG#\	2F#</ 2G#< 2B#<X	.	8r	.	.
!	!	!	!LO:TX:a:t=rall	!	!
.	.	.	4g#/	jak	.
.	.	.	8dd#\	da-	.
=75	=75	=75	=75	=75	=75
*ped	*	*	*	*	*
!LO:TUP:problem:problem=brak klamry i numeru	!	!	!	!	!
N(12CC#\L	4r	pp	1dd#	-le-	.
12GG#\	.	.	.	.	.
12C#\J	.	.	.	.	.
4rEE	12D#</L	.	.	.	.
.	12E</	.	.	.	.
.	12G#</J	.	.	.	.
2r	12c#/L	.	.	.	.
.	12d#/	.	.	.	.
.	12e/J	.	.	.	.
*Xped	*	*	*	*	*
.	12g#\L	.	.	.	.
.	12cc#\	.	.	.	.
.	12dd#\J	.	.	.	.
!!LO:LB:g=original
=76	=76	=76	=76	=76	=76
!	!LO:TX:b:t=dolcissimo	!	!	!	!
2r	4ee\N)	.	[1cc#	-ko!	.
.	4r	.	.	.	.
4e>:\ 4g#>: 4b>::	4ee::/ 4gg#: 4bb:	.	.	.	.
4c#>:\ 4f#>: 4a>::	4cc#::/ 4ff#: 4aa:	.	.	.	.
=77	=77	=77	=77	=77	=77
*ped	*	*	*	*	*
4c#>:\ 4e>: 4g#>::	4cc#::/ 4ee: 4gg#:	.	2cc#\]	.	.
4r	4r	.	.	.	.
4C#:\ 4G#: 4c#::	4e::/ 4g#: 4cc#: 4ee:	.	2r	.	.
4r	4r	.	.	.	.
=78	=78	=78	=78	=78	=78
2.CC#:/ 2.GG#: 2.E::	2.c#::/ 2.e: 2.g#: 2.cc#:	.	1r	.	.
4r	4r	.	.	.	.
==	==	==	==	==	==
*-	*-	*-	*-	*-	*-
!!!system-decoration: [(s1,s2,s3)]
!!!RDF**kern: > = above
!!!RDF**kern: < = below
!!!RDF**kern: N = linked
!!!AIN: 1 empty 1 vox
!!!ENC: Berenika Jozajtis
!!!END: 2021-05-31
